-----BEGIN PGP PUBLIC KEY BLOCK-----

mQINBF95wIcBEAC/tP9NZpVMbekKaN4AKW0A8VOzldEEBdlACvT8k4i52TFG1qab
mG3iN87IZldcT+h8pIYpo3pjkHBLl5ztNI4xatERt06UYwssv0Fk2JcjoEVVTUue
GcTPW+MMXnvAV06X7GoX5r/0JhkESFYNOd+u/1SfsJtTu8qA9uU7L4K9K727PnE8
BtXPrCCcawrdazWRFSBqEo/Vet5nttzrn8GBuqht9qLqyIM3dVrD9MXFK47WwJz9
6lzesuBGVFd0X1m1LeXRom2bQ7yQ6sknPrEXUeUhm5HbmJ+yomxJxPM3FO/tkrub
+11uewSZoAPqknW0WSinaVREQvYIvJKfxYJ4ubWIGEjCi7ZRg7F+bkz2AcnMzpGB
lTklHChDUFTcmByn3JWrXYgO1lAxg0BDePQXhWwHcisBYEaotwWgwna9425WcYGd
GBGr7c2F3NDTgwlbHXON329ETPfbANREWtxSvtj7KChBfqvvaoc+WVMnAmP2jkew
lDuNBA5003mNtrPo6J6yNa4i86NpRYfWr6FIaB3sEILaWaPFCez+BLRKlDCsNRDD
t9SpTbwirjdKCxdzfj/UvkOk2S8R6OHRmU15P4eS6C6I7B1fCMoP3DNPwnPF4qD5
FDc88dYdhfpOApjSJhAqhxbUGdlMl2xh0m1ylAms22h0IbivwYimlb8J8QARAQAB
tB5EYW5pZWwgV29mZmluZGVuIDxkYXdAaGV5LmNvbT6JA7MEEwEIAZ0CGwMFCwkI
BwIGFQoJCAsCBBYCAwECHgECF4ACGQEWIQRG/IievDgQDlHoMkXz6lA7Ng+9QAUC
adFlSJ8UgAAAAAAQAIZwcm9vZkBhcmlhZG5lLmlkbWF0cml4OnUvZHdvZmZpbmRl
bjptYXRyaXgub3JnP29yZy5rZXlveGlkZS5yPWRCZlFaeENvR1ZtU1R1amZpdjpt
YXRyaXgub3JnJm9yZy5rZXlveGlkZS5lPS1XNTNVQXhMNEdBZkRGRUR5RUtFU1Az
bW5uajAtbTVhZTJEM2ZRWlRnSDAtFIAAAAAAEAAUcHJvb2ZAYXJpYWRuZS5pZGRu
czpkYXcuZGV2P3R5cGU9VFhUXBSAAAAAABAAQ3Byb29mQGFyaWFkbmUuaWRodHRw
czovL2dpc3QuZ2l0aHViLmNvbS9kd29mZmluZGVuLzUzZTRjODFjNDA3NDAzODhh
N2Y4MzMyYTFjODBjNDAxNhSAAAAAABAAHXByb29mQGFyaWFkbmUuaWRodHRwczov
L2tleWJhc2UuaW8vZHdvZmZpbmRlbgAKCRDz6lA7Ng+9QO53EACmGQQCfD96OXkM
UDmplQouxs5Qqa6+YsoWyKEkEbeusv1YHgP22Xjd6e4JqastJMedg1Moyk+91CZg
RRFpI8hCMA42E2pgnRCWpkL4SHiftSls6npwZAmok3E9e9B8q96iqcEJ5SH1Xykg
h1saVc7FcXCmLtvxiLndP5e4elZj9F0grVPV3yi+3sop9D9OI4X+zbZtAopMrb6A
X0fDnM5m2R7+kGSKrv/IKEOmwyKNO3NFge+bGO12LMIVkM86Ye6Gh9xV6oE0AeuG
GZZCJsZ7JqZ9L8k67QTXzSyLFkNjHgovg9syzRwTlF/9wC7Fw2xVlNMLmTsrV5Zd
XJQPNxRuIOqjUGRnD+PcBIwEcOsCE0tgZnRJl9y7fiuNn25rbXL7kA04I1HtBkfm
VT2I2ihIN7L1/LHk0pzjywC2Q86jfOTwlSJ7gKZ3wexHSDMpZ7i/aUg/mokJzCdJ
k9luEF1iS9jgrHl6WhPHuqt/1ISuKXVNqAPbtErqKNtfxPHwiPXgNm1M+iLqyDu6
7zxyLRyIXAKANqC/DjLTq8f1q0G679x1lJmlHVpxQ2oNcJOTZF5J6Hcfo/f+B7j4
Xgfo0X8AYWYJPE42ROp4KmqoNqpFKxedW2wXHVh+N/oAqykNjMfXVSR6tj6U2dJ/
+XgtMkmfKbwTUVrmwBH4GmUI/meE04kCrgQTAQgAmAIbAwULCQgHAgYVCgkICwIE
FgIDAQIeAQIXgAIZARYhBEb8iJ68OBAOUegyRfPqUDs2D71ABQJiMzzqXBSAAAAA
ABAAQ3Byb29mQGFyaWFkbmUuaWRodHRwczovL2dpc3QuZ2l0aHViLmNvbS9kd29m
ZmluZGVuLzUzZTRjODFjNDA3NDAzODhhN2Y4MzMyYTFjODBjNDAxAAoJEPPqUDs2
D71AMyQP/jwwR0o7gkdZPrtrsnNy6CG5hDnKUjdinT4fCcvxl9gK03/5IIqo6aIo
MJs9a5NW3MTIFDBC/bp1AfdyvlkRi6Q8aa7dGpVgaxEdf04UXTse54SLXVvCyiCo
FPBe3ygdYHwgFH1U2v9TCn4Yl3HFh0eJG/msKvRB3lN+oBAfBEC/AYW94sdRjQJq
yWPwX6kscfV0QOq/I2621TLh3OI37LpdtMWiP+F5UKYDeMmNDjxyB8HBRmXol/eX
l1kdFHb1I/42gbTuaEs2pcDNlHOgy1WCQe5dRETuXFqTouGkPxvfJL8D3G8YMEux
Sn5ev4z7cVDne6a2Zd3DBSR0c2+VD8xRqutbBDxZhBEhjSZIt0+/OYkb3bahxBH3
J//Q4fQU2a79mH7rQI3st/Zrib0m9IoQf19hWhbSR2LXZ7lFk1W+izTx4sZDIO4h
STUNGf8uumOW8kTge0ZfB7p5+Ba3MwPaRgFgevuCombYwlALSwS94PJk0ptpR3rL
8mGc6UFqbRu5JWMcFnZoj1nUMFrVL8QQTUWOQezriCtS8ghSkCm4XS7lHFF6Rab9
GZAaAElKAafIFJdpZQIZ95e5Ukg1zHDNEePftOfsRbn/EpsAXk1FEw+gRw8AVfZ9
TW+e9yforfcSbhzRueVigdaQky9iiNwypKw/yNXnYTuXlIZ7PkwAiQJRBBMBCAA7
AhsDBQsJCAcCBhUKCQgLAgQWAgMBAh4BAheAFiEERvyInrw4EA5R6DJF8+pQOzYP
vUAFAl+bQ4UCGQEACgkQ8+pQOzYPvUDUZxAAjF9FDsxDkpNUUoCHOofJ059PBA1X
BUYtZPPJAIdgFEBykej7vgPX3ZcsZlUOuSTf9i0SZlOMm+xGuZ8NmUKP/+UqwUb2
dPAPD2z/1GFcUcYTpZ45IAiToOBYalEfZFG2NPb7YCdVC80PaZcPm2a4EOelYQOq
C0DrNXCdlQMG6ZA+J0VEKpntpbLh5TnqZFjyB9n01uK84qh1N+HZHjwCEQlEwBrk
n23w31mFbPGsCgMAkEN/3FWWIn/b1llG8LZZFX02dGf1UllYPLUXnfxD+DZdSep1
KVOcS/TnsDsxl3x7WvTX5Q19azd3SAzSu5IS11ieGu2UcMvd7HoxfQUDW8vUSH+O
3eGHOM0B3gSkmObV3f9d4FtDUbfxBDPYl4adY/EZbDi7kJeYpM062VilLBu88/1a
LPE27kUzA8bW47GQBUrJwvt2h77rCx71J6QhNMG/nqp5pieXSJ7pE5sF4Nfd7e6C
tHHMSCn2OdY8QRd4fOXHQ8HmJU68krztLCmkWy5vj45wHthawfq32b1mNY490/Vn
tBjopf9io6qhjoxWh1NPFoYadPx62JTkoUdFeNTTnHyo+G0/qXkEPBWMh/CbiI0g
yBEofGKfVQ2xyi7iQGJ2boZ1GLgfNolin7VXiLWslgGcVZ+/dbkxAKJa4lpb6hOo
OGMJhGkdNbMyN82JAk4EEwEIADgWIQRG/IievDgQDlHoMkXz6lA7Ng+9QAUCX3nA
hwIbAwULCQgHAgYVCgkICwIEFgIDAQIeAQIXgAAKCRDz6lA7Ng+9QGgxD/9DPFp2
ILH2L+3FAZ66pChrFLtUT7qAru80Nv5sjlK2nK8ejZtKPxTwyfHITjTyWs2+/1Fi
VY9xN9T3OZfNeJHyZ2v8lGfj0h1yQo+py9kjKC7rF6kuCyu0jMgmpaW6VW7ejd4O
B+HLbhZsq3S6hR7QKqp/kf88Vqys5plJ/K3u16F0hKTWM9u4K2CrpxJcDK9+xhc5
G416/8TVei8D4YF3RZUoZovbl9LSIEvlGu2q/WsDwYgHuHBenazuvRZHszpheuSu
PeHGnhcIkXjSpkXK149V8KuhPcivEmtJB3K4lzMGG2IeLVSOWVVU2u3Z3XCBnb0b
4/bW/u2BCBpfpgwSTasJ8ZorTaDM81JQb3YwKYfOXaDFqZ+1eqq0JQVHuBvuv3su
p30QTQFXFRqTG995/6tJYcStLgiGPgxDYr1kyEhr2g9hEuyFIKvRZ+NEh2ahamzU
ihqo6Nlxi75rcNFNTaPdoVIRu4ErpwSl4DGOCjgx/YYqYjXGjS70P7MF6csKr8eO
giT4yki7w4v38x5nTlkYRNvsT8xj+sRAr5ZWENSajb22jE+iYTXTdHWgZ5G6fnUA
rKuMsedJX975KCVLteDvhcRP9Q4tzynDMyBkfBjm3UhKxgNxV/qfA5zqvAlDF9t4
MIFWABUao+AgD9Ac2IhJrLpFOFN5u8zEq/tdWIh1BBAWCAAdFiEEcDACeUMMpYsI
SP6CMDiEus78eLEFAmHv2mwACgkQMDiEus78eLGgcwEAwDr+lcvrTQhR3XwWj5vC
cT+oPCs4NW0k8DVZy1cyNzAA/j/qo1a1t3gwCKfjJntO2a/ZblhODfMBf0X6bUtm
JJ8FiHUEEBYIAB0WIQRoSDtByuGXh9KmpRNsUOSF6BoPLAUCYe/agQAKCRBsUOSF
6BoPLByEAP48sXxN2jpnx5zwAmMjGhmZkjO3K7D80NuFpC1DLofJgQD/YYM4ivjy
xl0/7IL+brqtfW9pyx6OS/pCcJtWeuCUqQKIdQQQFggAHRYhBAub6vXZOMJG+8oB
bsEyHMypN7tQBQJiWDZnAAoJEMEyHMypN7tQdmgBAOKOZ6DoAbBH5P53U7jckYTY
U/30f+O0OlLGd8EpGYBxAP4wfiILIMQW4+LYZnLv+o6Qa2ie0GmRkZ28l2SD4hBH
DIh1BBAWCAAdFiEErybIuNQSko/rMPByFZMMKx7WPQMFAmKBcnEACgkQFZMMKx7W
PQMajgEAt+FrwWbvw6w/E7Mj5ZB1dD2oLUjGjAMjvGXx2R5ZN24BAONxzqxBcZ20
1QM0YaN7P883Kgs016mGS8agmv1xOpwNiHUEEBYIAB0WIQRu/RN1/QrTog/nOW/u
mc8m56XMpAUCYo9D+wAKCRDumc8m56XMpPtqAQDtEbXaHM23v0fTyKYlMd+Iqswt
k5KasNbZD1mtQwWiVwD/YBTZaNgCAR3rVGcJe9TvTDMpd1OPPNLxtoBiUXqSqAy0
IURhbmllbCBXb2ZmaW5kZW4gPGRhd0Bnb29nbGUuY29tPokCTgQTAQgAOBYhBEb8
iJ68OBAOUegyRfPqUDs2D71ABQJfecXiAhsDBQsJCAcCBhUKCQgLAgQWAgMBAh4B
AheAAAoJEPPqUDs2D71AcXAP/0AVbY0+bXTPNM6kYR+Na+QYE8KYpsP+qFWPRBL7
49oL23jwwSR0q+eFfxOc8R3etGdAcLk/qFBql1er6pEuprTzkHyMIsJjJtl0VFy9
iF+Nq97lNFKQgLG8giOcNKs3FDkU9Tb0zNCYJQlyfh5eEyAdDInssut0aSU1Oo/o
dLG6Seal63+/zwEKeeDCoHTHK3dtP9CbxzyFSROUrjOfJcgi5KMKq+/mhnOAHktP
7LjwcFDP/Mm7PbsDr/K8x/uGtohutLjHoZXhg7kKyZpwx1bhd6dwBpPCyDnR7V97
nmQi5tBM52sEEs+4gaeuj9uYV7UzbvyXAEE+cyUHVrD1TrZ8mu0Y0lc6xnCh57km
4Qvt3GjtYsn71Xnp1PvE+qLu4SQp1dFI3zGAWY34ZxF0fqo2QZtTMCwcWBHSXaHI
zsKn+23kAtUaE1UvudhMPDczr1yIgWyp0rFl7nFtvbnbjMwnMu5VYyOBR2Pf601z
oerItPGw+/aCmsCG+icohxwed0yOaVbPa4txMkxRaBj12UOOODD6pam7dKtqxJAB
Y9mAjIkO8/9X5dRbqIT73z7AtOvbDkusVf2QewjfUWsQvFOumkaYp1YowLvuj8AC
EfS4VcBIfxfLUCjvV7x35ghHC55sg3lP/4X8237CEi/KJzIhkm4cQsy/CqoUC6MM
7Ns0iHQEEBYIAB0WIQRwMAJ5QwyliwhI/oIwOIS6zvx4sQUCYe/abAAKCRAwOIS6
zvx4sTazAQDMBMZxL5oT/t4J3Sbtr+CP9zXn4jr0hh6R3qUmonBEKQD4sx4GfLk6
VS/y7PNmrkjIVGCZqSxq9BKGg+2PsxwkAIh1BBAWCAAdFiEEaEg7Qcrhl4fSpqUT
bFDkhegaDywFAmHv2oEACgkQbFDkhegaDyyA4gEA3Df2+6DrT8zVvPJ3ZiM4E0yo
0OSU2ipA0RWlKLuOT5oA/iNDHl0ET1a3Sja0Hq4sOPGfaiHpra5ESnAD58LQEukJ
iHUEEBYIAB0WIQQLm+r12TjCRvvKAW7BMhzMqTe7UAUCYlg2ZwAKCRDBMhzMqTe7
ULizAP9keG27YQqslNB32KwHx1rh8v7MZwI4ga4kIJWnur/ZXwD/bqDUZ3GDCCTY
tHKAvaMpxIzayacpMsNUfeITrGAL0AeIdQQQFggAHRYhBK8myLjUEpKP6zDwchWT
DCse1j0DBQJigXJxAAoJEBWTDCse1j0DAiwBAPxKMWEzQ10iWETH3coFNMqn+u5o
nCoYiKAMxumZvRsWAQD3ZAPPB6iUsCuAJplRvFtbtweiLBgoQizsXmaSU+iNDoh1
BBAWCAAdFiEEbv0Tdf0K06IP5zlv7pnPJuelzKQFAmKPQ/sACgkQ7pnPJuelzKSJ
/AEAhESsECNyKXQ3HhSPoDzAhO1DnmIrJPbv+huGkI5vHU8BAJi01Osy4DyqYQzf
8bdFkNdTuQkubA3mY4xC9Dl7BnUItCFEYW5pZWwgV29mZmluZGVuIDxkYW5pZWxA
ZGF3LmRldj6JAmQEMAEKAE4WIQRG/IievDgQDlHoMkXz6lA7Ng+9QAUCYoFyJzAd
IFJldm9raW5nIGRhbmllbEBkYXcuZGV2IHRvIGdpdmUgaXQgaXRzIG93biBrZXkA
CgkQ8+pQOzYPvUA/pw/+KjsHUmrcfVtMs8huc0Td58wRVbLjnpJldQjcFkJFLGba
nwMvRCbrKhdW1XMK7bRzd0iz97QmOKbsnuv3CW0lFK+fC6+kWwAjr7WXtfejhdgQ
lFCgPAHJOq9iHQniCtQjqBEOU6GvzANuQ0RD6fJPTkOPA6kYL/wmssa8PUsWQY2D
LHKuxJjVASdyRQbybmN3EIiQ3N44Kp5uqAiJjekJfcpIdFrII49KyYdpXC35KiQ5
eYC7q9Iw1AxQBIeTWhdd66IRzGJKhxxZaJUdpENd2T44bcdPPa/8ht3iEbA6wjP4
Fz7HvftLxqUn+qvWPgimh3I26rXGvccprmfyH0ggX+WO2F4KyJOezMLnPML0PnEx
5QuEk0/dfLnch0WDhyS7XYpKnD1iKJBQd9QBoT4Lvr7SCFMxFqowdi3XuBhQCIZP
kI286DHwCBHA6hEhKN2hIprfTvRNWtPkz/sEymbNeloZfdkfhyuQ7rhztcrfiwo5
/bBrM1opu7X+Vv/dY6/mOIHjJvMyN0Au98xDcKxiE0T+UaST//mmo+t8S5qlPLFV
FbMvM/JtHl9it+kzXVFDxBVwxMj5CdAr8naDvid6SNw/GLgcuNQSI+zzMoIu0fvB
MDEBQJBiWKzjacS5HfFMtWhes4ZZkg37aUODdmQ8XWeR742BB2r6O5IQJSMq/5+J
AnwEEwEIAGYCGwMFCwkIBwIGFQoJCAsCBBYCAwECHgECF4AWIQRG/IievDgQDlHo
MkXz6lA7Ng+9QAUCYjM+py0UgAAAAAAQABRwcm9vZkBhcmlhZG5lLmlkZG5zOmRh
dy5kZXY/dHlwZT1UWFQACgkQ8+pQOzYPvUARIg//V2032XFSlrhKzy4qTxHxRWcu
WK1DMu3yS03T1QnFK2dX8HC2jwNYRbc1lKb6k6echCPVQgXeJSrH9dcVsa1IXvgc
wLP+JQLwkBlvMd1NJfXReuKgqeoVz+zfiGnJ/E4VSgXkIFYB25BE23XpTQNf9EnC
7qIGE81eXxBtaNf8AxfkzVLM8qInskvJ4xWntj/x199i0Md+aoE/l5APg2MS0VNe
EEBLTpgLdynOQuzzcFtknEKUXUyjhrbY8XyFEDD3T50eMCD65zyeiUOK7OYTTARz
PNGHHnaQO5IV1VYlUAJVRiE0ZNQFhjBepqqcTmEzB39Vd//JSnBwa1MgH2QrPhzH
8k4ztj6xCPfl3+3uIqSjb2DxNRpYns+NIJVVWuqq+e/saX+gstKSHE0JcDtzpZ+U
zY/eYRYvXxskwJ8egRgQ6ywd3CGPeDLoeOvvya9aWsQjPypEA8lcKjwH58AS8kfv
VknUKJiBkyEOtIWQ9U4Nh+37u9KTgZm12VZg/Grma8lZQNwfW/YdBVMtlIGOFTe6
eGgfApX4bdkJ+PQSgHnn3HpBzVDO9bOfnMCmt+fedAyBEN+IiZdc1lOfnKy0T07Z
nuCJAWHeH02l0p2Cyw1kvuJhe8xJP5f/qU0HuNCAQEfNkHpNRHyO9gjhTVzUnm9y
ZphjW1i+Y2qLIqhHuOiIdQQQFggAHRYhBHAwAnlDDKWLCEj+gjA4hLrO/HixBQJh
79psAAoJEDA4hLrO/HixRfAA/ROzXKA4GuEdXrDECBJ59xEnhED+m6jlAoLVT/lS
d0k0AQCvoL1YsTidHCBcliJ+fX9irO4StITnVBhxDZlgefzLBYh1BBAWCAAdFiEE
aEg7Qcrhl4fSpqUTbFDkhegaDywFAmHv2oIACgkQbFDkhegaDyz+4QEA9t/jhSxE
RqCkSlgm7FaTvsk22ngkBM8Fz4/vRU1bl8MBAIhpqKpEPw7muKUyJ6uTT5zjBkJh
/Of0t9Fxaq536+4DiHUEEBYIAB0WIQQLm+r12TjCRvvKAW7BMhzMqTe7UAUCYlg2
ZwAKCRDBMhzMqTe7UL+zAP4mJPnk+qVs7zs4pMC8lj0lVJN7sIH/+3hwXA6Jj+Nc
QAEA1IScxCcG0YQUSb4AN/cCP9X4ubf3AU7HpcV3gWIjTwO5Ag0EX5tFYQEQAMRb
julu2YyeulKlPcflY45LU8+ouzbhLYy4mHDGUN6NA+aH0n0S5Ohakqal9FtN9LG/
eW2ytVmTrpnX1jJDOr+ktRmg9RdILoLktp/M4pUpvCreeJzCOyStHp7AIpXFhnQD
zpX5RRNV7PqwLhEQyT7I/QNUskYLbdCC8ndrc5TvuK8Ge9FO2ARBEqUwxAuOxm6B
8Pxi8kCFjVV9ZoYFEBJulrdXmazbC1ekGVy5TbTwr4ePQVGZBtTHYIso2cDLP0Jt
cdAscKHnLXhXlXQaP3I4oaY15EHTXM2oaAx6S21vJGH/lApUnn9A3DmWDgos/hWk
YpEjjLDBVr2GBlJYKnh7/4dufSkTOhxXtsMQfPM/tX8In8UThQpUZY9K61R/mBg/
bLElL1BXomgaIFtsKXoPSHHZYtrRZnjMpCbfqe4eCuRpANv575aYD9DomJeQfa7P
NcVr4Yh7h+VyzPpscM5kcIG8lWHQ0kCy0rdm7XZqtVPQx6RrGM6hytMZWSkDE2nb
iIWRBb8soMn2pIkPYAc3Ow12JYEaFX0lHlO76HOsjgfXKrMw0+l/P7K8k5A816DL
9tt43/EG4gQDltSCfoX0yNQZhLLsn+myxQiphpl5GcfVKc2p+/80SpI9iZCgO/T1
BYkYKOPDFA86TZHuEX1z0dED/Aa/G8NUDW1biDSJABEBAAGJBHIEGAEIACYCGwIW
IQRG/IievDgQDlHoMkXz6lA7Ng+9QAUCapc6QwUJDX2DYwJAwXQgBBkBCAAdFiEE
UE+6blF43sY/6lFdvI2AFtj/uYYFAl+bRWEACgkQvI2AFtj/uYag8hAAkvsu+9Uv
Z5OJvPpxjteD43deds+3Bodarhh4iF+N+4D4qfrksr7nYkdCoQQ8FwPIWu3jqmae
c45asJkBYxubJLdttfhOmwB7MnkdWKexdsva4a4AMRo0TkgOE2FSWeHrMMTmPRHr
b2Up1wJ+woHOSVpQAVke5gunhxsBRle9VtpuD2c7o48jbgfR/bpCqXkQVKYIGzkX
LdCZ3hxOF8Hatti1b6jg/ortbHbLIFAu08G0RUalGAfiTAfN+AhtVKDrNu0omsbi
vtLmqOo6rGTGeFUIxMEafC3h5s88RmMYt1pcu9HlTccyXj+NPh52VFci4GUhFj/a
PP4sDb8gkV3cGO2pxurzvtegJZhHliGbU2Wbc989BjNfbgTfhbZFbqSRwGWAS45t
jae4vnLgDiLUtKZo/tSzrTE22vxPioXDrWNsRi6/zeAzT80u+nE8Xxxy0TYLBu50
hgfa8EHmgIajPrwOB+nRTPv/a6eb2n8ROe573FD0CIRIfvLMVZ5lMLl02vKyxdt8
/EqlK3v2hHWVl932XAk47TA6GI9KUYzx9C5aC8U0p/a7IIBfPVZrYupu0dIaNF0n
eBbXDrQwOqpIuimZyc5ndAOD7zGth0pnsQLvdYh8t3yXFCDyxpx/XU0XYLtlmrR3
/EQXohPd8coHhOwLbgtsa9kkQNXEMku67GAJEPPqUDs2D71A2CUQAKuV9cbO1UcA
Dr3G5Uf+yqN2zaEB8xxSeCXP1CfTbLTBUi6gshIvXEVpOMfOKLDn1E6sMXoJY2HV
h/YYXeOHr7XSoPXt4HQfJZwau8VylFjnwP9UYTPqCZGCt4JzKI+Z/srf9UemSg6F
RVtM4E3U07aB7zS9XERfYGZpIvA6WRJh2Usf6X1x7TOIzT1dsFN4gNkwEQw5nn9q
O9IFeGDLuwWKzRwLNv4BvpOYiK1ZFPhcsUL/owbcU6dSrLpNdG50B+Ujg/sTMIcd
ahrUt6PMW13BfbYQVJACUqQV7/QF6svFPu0Mv6KFQheZkiIAIVyCze6Lt4vgkAQ+
Hl/wa1KDLr9tsJIMeDWpuD8NmYADj9mdKmF51xJorwsrwZU4t4vnIvFDWyHTDdgm
Sc0BaoIY+5zcXU0OlWV4czRfUMrQI5lZ0YjpEJxs/iHM+kncaogjaJcLztopWGUm
sOvP2C+WJA1TkZjpBkKJDvpOpCUe5Pk0L5CQyNpFES7+YsaT19xB2dktTvpknIhp
1+fHwzOU/X9DeA2e9CO2dwE75UAD2nhWH5dYEBhlLzdFdYfGzwKo0MDNEBKujSQ+
cq9P/EvYXqmAA2B6C2x1IILnf+9M3+5KezlFDPkb4TdT+O2C+AOYjl9xlEeP8tMk
2ZB23N9CMAWTK2g1K1FuQ0f2HNRO9VTRuQINBF95wIcBEADXKx4dWKPK0GHh+P+S
Cg10GCBE1/q4XTdtcod6umxDJ2NAzwpzXLfTKcmChDC2rUlCjofgYnEVEY3x9NNu
rJkwhJWn1JTDBqyM5em73dgfPTVBh95BZgwYMnHrmHr4OpqRFWfDIVb6l3QEPfZy
P3t3Jy/NdeaFn87hczXRuug/84FzjOWFTI6rOxW4bmd7RDKnwqLndnMpOERl9erK
biqqIDRZqlkmUWU2DNBiob7KAVCBem5FiwwNHZ8BK9BFwhaObfosAev1y6Nddnw1
YtSGVfvY8uUoAfIvOgT928OPDC6H6RQD4Zjb1JDxE/c7kS899etssYfCFbnn6P7g
uBbd3CiUTbYjDz3AAa75KhetXwOVurLbcct/GJQIYMxcYrJwcTJhm/1LvM+6PS9i
q/TL4NI33bEv9wqOFTx1/CjhDTZo2MD+VmvSZpvyzeozW7JaiuGgAjzwPxHDn16A
d6N0YMbQlunyVNq1QXdjqKX45L7qfuK+Y7I0clIu+r+x2w8R5/radgFI5DkqTOCx
Ezls4DR0L71lJMYPTnO7RxTGZwVccGwlTFbtmPfzJ/5IP65q/l+JAbWc+igapeyg
Dqz/mryn7xleLDMkZQZ0SNXuTbAsAt+GRBF1Ahcq2qyhxgZOa5WiiJJO8HfTuZzY
Pbk+x2GekuuKUgAmKiKE75GldwARAQABiQI8BBgBCAAmAhsMFiEERvyInrw4EA5R
6DJF8+pQOzYPvUAFAmqXOkQFCQ2fCD0ACgkQ8+pQOzYPvUBptBAAkmHpzxi5FaWU
mgVUKkeFERD+4f4OQkgbVqn2txwgsekcKLyrVRq91ipnEkbyg4vKCYIy+44gFZdg
A4YZtllRna+qsTkcnSU0ENzthcM4JhzSt3x4fxuDJf/zDqx+WALvN0a39KypGo+S
uJIQmxRMIdUxFy3t6NrCYDWVtkuSPhUoSF2bxTTW9hUnxkOMAzUGIPjBIFCoynlr
1OcL8PJ84L8JvEgY7vaCxQEdltWQr40S4gIA/ZxIMQj/sTWmBcFNdOM0dBfIT0lx
HVZJ4q9cqKIYBVHNLH7VXFlGKJsiL1JUH+Qs4MggY+BpMheKmnHX+BXdmalqsGJZ
u4qQvSZCnNF/1fQP1MrvP+61QoL3WjhDe9oOHtA3Oi/+02ClrogC8UWeC2CPgiz6
yTOJ9jbB6u8kVEwd0//6kBX7oA+QZuUjOu7l1OODm+f2tXM3612j91xEUnog56bJ
9iSo6/QEgD6F/BkGvyyvfJAqtC08xt0nuO5xbWPvB7M/Ylo2LDC63ZGiNutHzNjk
RsSQ40t/gs0+KDsZbfx9AEyyiBPTK5Fk8MJ5eO6z0gQSqwK/mzk901TPExqoJPFK
ElPvrbVrMqiUiWy5klC+2yxUXCWEflB4ueV3qginXsPIoklyZu+CsOV3fg7TMwj1
9HJBQ6iHjZqHOEDActC//B4sEhLVlbc=
=YhK8
-----END PGP PUBLIC KEY BLOCK-----
